X: 16150
T: Green Hills Of Tyrol, The
R: waltz
M: 3/4
K: Gmajor
DGA|B2 B GBc|d2 d eBe|dcA FAe|dBG DGA|
B2 B GBc|d2 d eBe|dcA DFA|G3- G2||
G/G/|g3 gfe|edd d2 e|dcc c2 d|cBB B2
G/G/|g3 gfe|edd d2 e|dcc cdf|g3||

